apps/statesvisited/state-images/MS.svg

<svg height="635" width="1182" xmlns="http://www.w3.org/2000/svg"><path d="m613.70532 363.48175 34.0179-1.67989s0 61.31613.42 67.19576c.4199 5.87963 3.7797 30.65807 3.7797 30.65807l-14.6991.41998-5.8796 5.03968-2.9398-1.25992v-4.61971s-2.5198 0-3.7798-2.93982c-1.2599-2.93981.42-6.71957.42-6.71957l-23.0985-2.09987s-6.7196 2.93982-7.5596.83995c-.8399-2.09987 1.26-9.65939 2.0999-12.59921.84-2.93981 5.8796-7.9795 6.7196-11.33928.8399-3.35979-1.6799-3.77977-1.6799-5.45966s2.5198-5.45966.8399-7.9795-2.9398-2.09987-2.9398-5.45965c0-3.35979-.4199-5.45966-1.2599-8.81945-.8399-3.35979 15.1191-32.75794 15.539-33.17791z" fill="#20639b" fill-rule="evenodd" opacity=".9" stroke="#000"/></svg>

<?xml version="1.0" encoding="UTF-8" standalone="no"?>
<!-- Created with Inkscape (http://www.inkscape.org/) -->
<svg
   xmlns:dc="http://purl.org/dc/elements/1.1/"
   xmlns:cc="http://web.resource.org/cc/"
   xmlns:rdf="http://www.w3.org/1999/02/22-rdf-syntax-ns#"
   xmlns:svg="http://www.w3.org/2000/svg"
   xmlns="http://www.w3.org/2000/svg"
   xmlns:xlink="http://www.w3.org/1999/xlink"
   xmlns:sodipodi="http://sodipodi.sourceforge.net/DTD/sodipodi-0.dtd"
   xmlns:inkscape="http://www.inkscape.org/namespaces/inkscape"
   id="svg1923"
   sodipodi:version="0.32"
   inkscape:version="0.44"
   width="1182"
   height="635"
   version="1.0"
   sodipodi:docbase="/Users/amyshore/Desktop"
   sodipodi:docname="usa.svg">
  <metadata
     id="metadata1928">
    <rdf:RDF>
      <cc:Work
         rdf:about="">
        <dc:format>image/svg+xml</dc:format>
        <dc:type
           rdf:resource="http://purl.org/dc/dcmitype/StillImage" />
      </cc:Work>
    </rdf:RDF>
  </metadata>
  <defs
     id="defs1926" />
  <sodipodi:namedview
     inkscape:window-height="752"
     inkscape:window-width="1280"
     inkscape:pageshadow="2"
     inkscape:pageopacity="0.0"
     guidetolerance="10.0"
     gridtolerance="10.0"
     objecttolerance="10.0"
     borderopacity="1.0"
     bordercolor="#666666"
     pagecolor="#ffffff"
     id="base"
     inkscape:zoom="0.59527559"
     inkscape:cx="775.234"
     inkscape:cy="319.32597"
     inkscape:window-x="0"
     inkscape:window-y="22"
     inkscape:current-layer="layer2" />
  <g
     inkscape:groupmode="layer"
     id="layer1"
     inkscape:label="bg"
     style="opacity:1;display:none"
     sodipodi:insensitive="true">
    <image
       xlink:href="ElectoralCollege1996-Large.png"
       sodipodi:absref="/Users/amyshore/Desktop/ElectoralCollege1996-Large.png"
       width="1182"
       height="635"
       id="image1930"
       x="-1.3571358"
       y="1.6798911" />
  </g>
  <g
     inkscape:groupmode="layer"
     id="layer2"
     inkscape:label="vector"
     style="opacity:0.9;display:inline"> <path style="fill:#20639B;fill-opacity:1;fill-rule:evenodd;stroke:black;stroke-width:1px;stroke-linecap:butt;stroke-linejoin:miter;stroke-opacity:1" d="M 613.70532,363.48175 L 647.72322,361.80186 C 647.72322,361.80186 647.72322,423.11799 648.14322,428.99762 C 648.56312,434.87725 651.92292,459.65569 651.92292,459.65569 L 637.22382,460.07567 L 631.34422,465.11535 L 628.40442,463.85543 L 628.40442,459.23572 C 628.40442,459.23572 625.88462,459.23572 624.62462,456.2959 C 623.36472,453.35609 625.04462,449.57633 625.04462,449.57633 L 601.94612,447.47646 C 601.94612,447.47646 595.22652,450.41628 594.38652,448.31641 C 593.54662,446.21654 595.64652,438.65702 596.48642,435.7172 C 597.32642,432.77739 602.36602,427.7377 603.20602,424.37792 C 604.04592,421.01813 601.52612,420.59815 601.52612,418.91826 C 601.52612,417.23837 604.04592,413.4586 602.36602,410.93876 C 600.68612,408.41892 599.42622,408.83889 599.42622,405.47911 C 599.42622,402.11932 599.00632,400.01945 598.16632,396.65966 C 597.32642,393.29987 613.28542,363.90172 613.70532,363.48175 z " id="path5482" />   </g>
</svg>
